src/assets/images/icons/dashboard-line.svg

<svg xmlns="http://www.w3.org/2000/svg" width="24" height="24" fill="none" viewBox="0 0 24 24"><g clip-path="url(#a)"><path fill="#181d27" d="M13 21V11h8v10zM3 13V3h8v10zm6-2V5H5v6zM3 21v-6h8v6zm2-2h4v-2H5zm10 0h4v-6h-4zM13 3h8v6h-8zm2 2v2h4V5z"/></g><defs><clipPath id="a"><path fill="#fff" d="M0 0h24v24H0z"/></clipPath></defs></svg>

<svg width="24" height="24" viewBox="0 0 24 24" fill="none" xmlns="http://www.w3.org/2000/svg">
<g clip-path="url(#clip0_58_16724)">
<path d="M13 21V11H21V21H13ZM3 13V3H11V13H3ZM9 11V5H5V11H9ZM3 21V15H11V21H3ZM5 19H9V17H5V19ZM15 19H19V13H15V19ZM13 3H21V9H13V3ZM15 5V7H19V5H15Z" fill="#181D27"/>
</g>
<defs>
<clipPath id="clip0_58_16724">
<rect width="24" height="24" fill="white"/>
</clipPath>
</defs>
</svg>
